dist/img/logo.svg

<svg width="129" height="44" viewBox="0 0 129 44" fill="none" xmlns="http://www.w3.org/2000/svg">
<path d="M28.718 17.1867L9.29869 19.6564C10.0693 22.9828 12.9976 24.6461 16.8507 24.6461C19.9845 24.6461 23.3238 23.89 25.6356 22.7812L28.3071 29.7365C25.4815 31.047 20.8065 31.9542 16.1314 31.9542C5.34289 31.9542 0 24.9989 0 15.9267C0 6.60252 5.54839 0 14.8984 0C23.9916 0 28.8208 5.94731 28.8208 14.3643C28.8722 15.3219 28.8722 16.2291 28.718 17.1867ZM14.693 6.60252C11.3536 6.60252 8.73357 8.87056 8.6822 13.9107L19.6762 12.5498C19.6762 8.66896 17.724 6.60252 14.693 6.60252Z" fill="white"/>
<path d="M39.4038 13.1546C36.2186 13.1546 33.5986 10.5842 33.5986 7.45933C33.5986 4.33447 36.2186 1.76402 39.4038 1.76402C42.589 1.81442 45.2091 4.38487 45.2091 7.50973C45.2091 10.5842 42.589 13.1546 39.4038 13.1546ZM39.4038 31.803C36.2186 31.803 33.5986 29.2325 33.5986 26.1077C33.5986 22.9828 36.2186 20.4124 39.4038 20.4124C42.589 20.4124 45.2091 22.9828 45.2091 26.1077C45.2091 29.2829 42.589 31.803 39.4038 31.803Z" fill="white"/>
<path d="M86.1541 31.2486V11.2898C86.1541 8.76976 84.6129 7.30813 81.89 7.30813C80.4516 7.30813 79.2186 7.71134 78.3452 8.31615V31.2486H68.7897V11.1386C68.7897 8.82016 67.1457 7.35853 64.3202 7.35853C62.8817 7.35853 61.8542 7.66094 60.9808 7.96334V31.2486H51.4253V2.21764C54.7132 0.957617 59.0286 0 63.7037 0C68.8411 0 71.8721 1.36082 73.773 2.82245C75.7252 1.46163 79.681 0 84.4074 0C91.497 0 95.6583 3.93127 95.6583 10.2314V31.2486H86.1541Z" fill="white"/>
<path d="M114.769 44C109.272 44 105.162 42.992 102.183 41.5808L104.803 34.323C106.961 35.3814 110.197 36.1375 113.742 36.1375C117.8 36.1375 119.599 34.2222 119.599 30.5934V29.1317C118.16 29.7365 116.002 30.0893 114.204 30.0893C106.241 30.0893 100.898 24.5956 100.898 15.5235C100.898 5.3929 107.063 0.0503998 117.441 0.0503998C122.167 0.0503998 126.328 1.00802 129 2.26804V30.6438C129 39.4639 123.297 44 114.769 44ZM119.547 7.50974C118.879 7.30813 117.749 7.10653 116.465 7.10653C112.766 7.10653 110.403 9.72738 110.403 15.1707C110.403 20.5636 112.663 23.1844 116.362 23.1844C117.441 23.1844 118.828 22.8316 119.547 22.4788V7.50974V7.50974Z" fill="white"/>
</svg>

<svg width="129" height="44" fill="none" xmlns="http://www.w3.org/2000/svg"><path d="M28.718 17.187l-19.42 2.47c.771 3.326 3.7 4.99 7.553 4.99 3.134 0 6.473-.757 8.785-1.866l2.671 6.956c-2.825 1.31-7.5 2.217-12.176 2.217C5.343 31.954 0 25 0 15.927 0 6.603 5.548 0 14.898 0c9.094 0 13.923 5.947 13.923 14.364.051.958.051 1.865-.103 2.823zM14.693 6.603c-3.34 0-5.96 2.268-6.01 7.308l10.993-1.361c0-3.881-1.952-5.947-4.983-5.947zm24.711 6.552c-3.185 0-5.805-2.57-5.805-5.696 0-3.125 2.62-5.695 5.805-5.695 3.185.05 5.805 2.62 5.805 5.746 0 3.074-2.62 5.645-5.805 5.645zm0 18.648c-3.185 0-5.805-2.57-5.805-5.695 0-3.125 2.62-5.696 5.805-5.696 3.185 0 5.805 2.57 5.805 5.696 0 3.175-2.62 5.695-5.805 5.695zm46.75-.554v-19.96c0-2.52-1.541-3.98-4.264-3.98-1.438 0-2.671.402-3.545 1.007V31.25H68.79V11.14c0-2.319-1.644-3.78-4.47-3.78-1.438 0-2.466.302-3.34.604V31.25h-9.555V2.218C54.713.958 59.03 0 63.704 0c5.137 0 8.168 1.36 10.069 2.822C75.725 1.462 79.681 0 84.407 0c7.09 0 11.251 3.931 11.251 10.231V31.25h-9.504zM114.769 44c-5.497 0-9.607-1.008-12.586-2.42l2.62-7.257c2.158 1.058 5.394 1.815 8.939 1.815 4.058 0 5.857-1.916 5.857-5.545v-1.461c-1.439.604-3.597.957-5.395.957-7.963 0-13.306-5.493-13.306-14.565 0-10.131 6.165-15.474 16.543-15.474 4.726 0 8.887.958 11.559 2.218v28.376C129 39.464 123.297 44 114.769 44zm4.778-36.49c-.668-.202-1.798-.403-3.082-.403-3.699 0-6.062 2.62-6.062 8.064 0 5.393 2.26 8.013 5.959 8.013 1.079 0 2.466-.352 3.185-.705V7.509z" fill="#fff"/></svg>
